X: 35294
T: Rose Of May
R: jig
M: 6/8
K: Dminor
|:def g2g|agf e2e|def B2B|Aag fec|
def g2g|agf edc|Bag fed|cde d3:|
|:c'3 c'2b|a2g f2a|c'3 g2b|a2g f3|
[1 c'3 c'2b|a2g f2a|g3 def|g6:|
[2 a3 a2g|f2e d2f|ede ^geg|a6||

